build/category/DangerSolid.svg

<svg xmlns="http://www.w3.org/2000/svg" fill="none" viewBox="0 0 24 24" focusable="false"><path d="M0 0H24V24H0z"/><path fill="#74767B" fill-rule="evenodd" d="M11.9986 3C7.02868 3.00076 3 7.0299 3 12C3 16.9706 7.02944 21 12 21C16.9706 21 21 16.9706 21 12C21 7.03027 16.9719 3.00135 12.0025 3L12.0006 2.99951L11.9986 3ZM8.55556 5.11148C6.04043 6.37156 4.31129 8.96857 4.30006 11.9706L9.00003 11.9881C9.00494 10.8187 9.67869 9.8072 10.6585 9.31628L8.55556 5.11148ZM13.3424 9.31572C14.3232 9.80663 14.9976 10.8191 15.002 11.9896L19.7 11.972C19.6893 8.96935 17.9599 6.37166 15.4443 5.1114L13.3424 9.31572ZM13.8098 14.3958C13.3069 14.7763 12.6803 15.002 12.001 15.002C11.321 15.002 10.6938 14.7759 10.1906 14.3946L7.35738 18.1435C8.64815 19.1205 10.2564 19.7 12 19.7C13.7435 19.7 15.3516 19.1206 16.6423 18.1438L13.8098 14.3958ZM13.702 12.001C13.702 12.9404 12.9404 13.702 12.001 13.702C11.0616 13.702 10.3 12.9404 10.3 12.001C10.3 11.0616 11.0616 10.3 12.001 10.3C12.9404 10.3 13.702 11.0616 13.702 12.001Z"/></svg>

<svg xmlns="http://www.w3.org/2000/svg" fill="none" viewBox="0 0 24 24" focusable="false"><path fill="#74767B" fill-rule="evenodd" d="M11.99 3C7.02 3 3 7.02 3 12c0 4.97 4.02 9 9 9a9 9 0 0 0 0-18v-.01zM8.55 5.11a7.69 7.69 0 0 0-4.25 6.86l4.7.01c0-1.17.67-2.18 1.65-2.67zm4.79 4.2c.98.49 1.65 1.5 1.66 2.67l4.7-.01a7.72 7.72 0 0 0-4.26-6.86zm.46 5.08c-.5.38-1.12.61-1.8.61s-1.31-.23-1.81-.61l-2.84 3.75c1.29.98 2.9 1.56 4.65 1.56 1.74 0 3.35-.58 4.64-1.56zM13.7 12c0 .94-.76 1.7-1.7 1.7s-1.71-.76-1.71-1.7.77-1.7 1.71-1.7 1.7.76 1.7 1.7"/></svg>
